X: 35024
T: Rollicking Boys Of Tandragee, The
R: jig
M: 6/8
K: Dmixolydian
AGA DEC|AGA ~c2G|AGE C3|G,CC G,CC|
AcA DEC|AGA cge|dcA GEG|A2D D3:|
daf ded|cde gag|ged ~c3|Acc Gcc|
dfA ~d3|cde ~g2e|dcA GEG|ADD D3:|

